X:8077
T:White Ladies Aston
O:england
M:4/4
C:
S:Bacon (RD (from MK))
N:
A:White Ladies Aston
R:Reel
%:
K:G
I:speed 300
D2 | G2 G2 GABc | d2 d2 B3 B | c2 c2 A3  A | B2 B2 G3 \
D  | G2 G2 GABc | d2 d2 B3 B | c2 c2 A2 F2 | G2 G2 G2 ||


